src/public/assets/tokens/poly.svg

<svg width="24" height="24" viewBox="0 0 24 24" fill="none" xmlns="http://www.w3.org/2000/svg">
<path d="M24 6.54198L23.951 5.72398L23.714 6.40598L22.377 7.58598L20.845 7.82598L20.387 7.37898L21.724 5.50198L23.1 5.08698L21.616 5.11998L19.453 6.70698L17.425 6.55998L19.458 7.96798L20.458 8.68298L17.409 6.51098L14.573 5.08698L12.89 5.42498L7.642 9.84198L5.118 10.666L4.077 11.742L2.211 11.764L1.294 13.5L0 13.877L1.224 14.052L2.362 12.496L4.115 12.867L4.088 14.526L3.209 16.926L2.709 19.141L2.17 20.025L3.54 19.719L3.384 18.813L4.544 16.38L6.793 15.469L7.661 14.012L9.125 12.922L12.032 13.358L14.971 12.058L14.471 14.115L13.166 14.235L12.794 15.935L13.916 15.177L15.76 14.364L17.21 12.065L17.3 10.974L18.082 11.792L20.342 13.221L21.62 12.61L21.541 9.57198L21.174 8.39898L22.851 7.97298L24 6.54198Z" fill="#0050db"/>
</svg>

<svg id="Слой_1" data-name="Слой 1" xmlns="http://www.w3.org/2000/svg" viewBox="0 0 24 24"><title>POLYМонтажная область 1</title><path d="M24,6.54,24,5.72l-.24.69L22.38,7.59l-1.54.24-.45-.45L21.72,5.5l1.38-.41-1.48,0L19.45,6.71l-2-.15,2,1.41,1,.71L17.41,6.51,14.57,5.09l-1.68.33L7.64,9.84l-2.52.83-1,1.07-1.87,0L1.29,13.5,0,13.88l1.22.17L2.36,12.5l1.75.37,0,1.66-.88,2.4-.5,2.21L2.17,20l1.37-.3-.16-.91,1.16-2.43,2.25-.91L7.66,14l1.46-1.09,2.91.44L15,12.06l-.5,2-1.3.12-.38,1.7,1.13-.75,1.84-.82,1.45-2.3L17.3,11l.78.82,2.26,1.43,1.28-.61-.08-3L21.17,8.4,22.85,8Z"/></svg>
